static/images/mauritiusHigh.svg

<?xml version="1.0" encoding="UTF-8" standalone="no"?>

<svg id="svg2" version="1.1" viewBox="0 0 799.7 931.29" xmlns="http://www.w3.org/2000/svg" xmlns:cc="http://creativecommons.org/ns#"  inkscape:version="0.91 r13725">

<g id="g8" transform="translate(-.12284 .25602)" stroke="#fff" stroke-width=".5" fill="#ccc">

    <a xlink:href="#">
        <path id="MU-PW" d="m249.6 478.29 3.64 60.21 1.45 24.07 5.23 29.74 12.54 11.89 3.15 2.98-6.97 11.16h-22.66l-10.46 11.15 8.71 35.33 10.46 27.9-15.69 13.02 13.95 18.59 31.38 7.44 15.69 9.3-1.74 26.05 26.15 3.72 10.46-35.35 3.48-14.88 24.41 3.72 13.95 11.16 17.43-3.72 87.16-102.28-34.86-24.16-15.69-29.75 6.97-22.3-27.89-37.18-15.69-22.3-31.38-3.71-38.35-35.31-22.67-57.59-5.23-31.58-24.4-3.72-14.37 25.29-3.74 27.07-5.77 41.84 1.35 22.2z" title="Plaines Wilhems" inkscape:connector-curvature="0" class="land"/>
    </a>

    <a xlink:href="#">
        <path id="MU-PL" d="m394.56 384.67 6.57-45.06-5.23-70.57-12.2-22.28-29.64 7.42-35.8-5.8-8.82-1.42-5.02 31.94-27.75 28.84-15.85 7.04 2.48 10.34 8.83 36.77 24.4 3.72 31.38-11.15 20.92 9.29 33.13 16.72 12.6 4.2z" title="Port Louis" inkscape:connector-curvature="0" class="land"/>
    </a>

    <a xlink:href="#">
        <path id="MU-SA" d="m325.29 930.78 137.66-21.72 69.13-22.14-3.69-19.33-5.23-39.08-20.92-57.67-29.63-33.49-33.13-7.44-45.32 1.86-17.43 3.72-13.95-11.16-24.41-3.72-3.48 14.88-10.46 35.35-26.15-3.72-19.18-11.16-34.87 11.16-33.12 13.02-38.35 29.76-29.64 9.31v35.35l17.44 16.75-4.64 25.9 44.92 5.08 75.83 24.54 48.62 3.95z" title="Savanne" inkscape:connector-curvature="0" class="land"/>
    </a>

    <a xlink:href="#">
        <path id="MU-RN" d="m263.3 325.12-2.48-10.34-35.14 10.13-15.59 7.6-35.93 30.13-3.31 5.34-13.47 14.36-36.86 73.49-11.1 30.14-7.53 52.39-1.58 95.52-13.08 42.27 17.7 10.01 1.85 17.75-8.46 48.63-9.77 22.42-22.2 4.23-40.16-8.32-25.76 10.15 7.13 23.12 20.61 24.11 93.41 84.62 34.34-15.66 4.64-25.9-17.44-16.75v-35.35l29.64-9.31 38.35-29.76 33.12-13.02 34.87-11.16 19.18 11.16 1.74-26.05-15.69-9.3-31.38-7.44-13.95-18.59 15.69-13.02-10.46-27.9-8.71-35.33 10.46-11.15h22.66l6.97-11.16-3.15-2.98-12.54-11.89-5.23-29.74-1.45-24.07-3.64-60.21-1.35-22.2 5.77-41.84 3.74-27.07 14.37-25.29-8.83-36.77z" title="Rivière Noire" inkscape:connector-curvature="0" class="land"/>
    </a>

    <a xlink:href="#">
        <path id="MU-RR" d="m493.34 0-17.18 5.48-9.77 12.23-7.14 12.23-9.38 5.49 48.89 59.13 3.48 22.27-10.46 24.12 47.07 48.26-26.15 31.56 19.18 83.55 166.89-102.67-6.34-1.68-19.16 3.09-6.6-1.41-8.19-10.69-4.23-19.97l-13.74-24.76-12.29-28.97-11.49-16.45-6.34-16.45 9.11-29.81-8.32-19.12-19.42-10.13-72.79-21.36-25.63-3.94z" title="Rivière du Rempart" inkscape:connector-curvature="0" class="land"/>
    </a>

    <a xlink:href="#">
        <path id="MU-PA" d="m531.88 304.32-19.18-83.55 26.15-31.56-47.07-48.26 10.46-24.12-3.48-22.27-48.89-59.13-21.8 1.68-11.09 5.06-44.79 36.28-7.13 10.41-9.91 18.56-20.08 61.88-24.58 45.44-1.05 32.22 8.82 1.42 35.8 5.8 29.64-7.42 12.2 22.28 5.23 70.57-6.57 45.06 15.29 5.09 27.89-11.15 33.12-22.29 23.73-1.23 2.42-15.48 27.9-18.58 6.97-16.71z" title="Pamplemousses" inkscape:connector-curvature="0" class="land"/>
    </a>

    <a xlink:href="#">
        <path id="MU-MO" d="m394.56 384.67-12.6-4.2-33.13-16.72-20.92-9.29-31.38 11.15 5.23 31.58 22.67 57.59 38.35 35.31 31.38 3.71 15.69 22.3 27.89 37.18-6.97 22.3 15.69 29.75 34.86 24.16 55.79 1.86 36.61-11.15 19.17-16.73 17.44-65.06-80.19-66.91 52.29-52.02-55.78-42.73-33.12-14.86 1.06-6.8-23.73 1.23-33.12 22.29-27.89 11.15-15.29-5.09z" title="Moka" inkscape:connector-curvature="0" class="land"/>
    </a>

    <a xlink:href="#">
        <path id="MU-GP" d="m771.03 562.59-35.19-3.74-47.06 37.18-62.76 5.58-33.13 1.86-19.17 16.73-36.61 11.15-55.79-1.86-87.16 102.28 45.32-1.86 33.13 7.44 29.63 33.49 20.92 57.67 5.23 39.08 3.69 19.33 66.95-21.44 20.34-13.96 12.42-17.49 21.8-39.48 8.85-5.07 10.3 0.56 9.25-3.24 5.68-15.93-1.19-9.45-8.72-14.8-1.18-12.26-12.56-28.61 27.62-40.73 45.18-35.65 39.63-13.25-9.11-26.48 3.69-27.05z" title="Grand Port" inkscape:connector-curvature="0" class="land"/>
    </a>

    <a xlink:href="#">
        <path id="MU-FL" d="m799.57 420.64-7.13-18.31-31.18-37.44-15.59-49.26-16.78-13.51-12.55-18.02 5.29-55.86-4.76-11.11-18.1-15.48-166.89 102.67-6.97 16.71-27.9 18.58-2.42 15.48-1.06 6.8 33.12 14.86 55.78 42.73-52.29 52.02 80.19 66.91-17.44 65.06 33.13-1.86 62.76-5.58 47.06-37.18 35.19 3.74 17.44-52.96 8.19-47.46 2.91-41.53z" title="Flacq" inkscape:connector-curvature="0" class="land"/>
    </a>
 </g>
</svg>

<?xml version="1.0" encoding="utf-8"?>
<!-- (c) ammap.com | SVG map of Mauritius - High -->
<svg version="1.1">
	<defs>
		<style type="text/css">
			.land
			{
				fill: #CCCCCC;
				fill-opacity: 1;
				stroke:white;
				stroke-opacity: 1;
				stroke-width:0.5;
			}
		</style>

		<amcharts:ammap projection="mercator" leftLongitude="57.300567627" topLatitude="-19.9736714582" rightLongitude="57.8155517578" bottomLatitude="-20.5344343112"></amcharts:ammap>

		<!-- All areas are listed in the line below. You can use this list in your script. -->
		<!--{id:"MU-PW"},{id:"MU-PL"},{id:"MU-SA"},{id:"MU-RN"},{id:"MU-RR"},{id:"MU-PA"},{id:"MU-MO"},{id:"MU-GP"},{id:"MU-FL"}-->

	</defs>
	<g>
        <a xlink:href="#">
            <path id="MU-PW" title="Plaines Wilhems" class="land" d="M249.6,478.29L253.24,538.5L254.69,562.57L259.92,592.31L272.46,604.2L275.61,607.18L268.64,618.34L245.98,618.34L235.52,629.49L244.23,664.82L254.69,692.72L239,705.74L252.95,724.33L284.33,731.77L300.02,741.07L298.28,767.12L324.43,770.84L334.89,735.49L338.37,720.61L362.78,724.33L376.73,735.49L394.16,731.77L481.32,629.49L446.46,605.33L430.77,575.58L437.74,553.28L409.85,516.1L394.16,493.8L362.78,490.09L324.43,454.78L301.76,397.19L296.53,365.61L272.13,361.89L257.76,387.18L254.02,414.25L248.25,456.09L249.6,478.29z"/>
        </a>

        <a xlink:href="#">
            <path id="MU-PL" title="Port Louis" class="land" d="M394.56,384.67L401.13,339.61L395.9,269.04L383.7,246.76L354.06,254.18L318.26,248.38L309.44,246.96L304.42,278.9L276.67,307.74L260.82,314.78L263.3,325.12L272.13,361.89L296.53,365.61L327.91,354.46L348.83,363.75L381.96,380.47L394.56,384.67z"/>
        </a>

        <a xlink:href="#">
            <path id="MU-SA" title="Savanne" class="land" d="M325.29,930.78L462.95,909.06L532.08,886.92L528.39,867.59L523.16,828.51L502.24,770.84L472.61,737.35L439.48,729.91L394.16,731.77L376.73,735.49L362.78,724.33L338.37,720.61L334.89,735.49L324.43,770.84L298.28,767.12L279.1,755.96L244.23,767.12L211.11,780.14L172.76,809.9L143.12,819.21L143.12,854.56L160.56,871.31L155.92,897.21L200.84,902.29L276.67,926.83L325.29,930.78z"/>
        </a>

        <a xlink:href="#">
            <path id="MU-RN" title="Rivière Noire" class="land" d="M263.3,325.12L260.82,314.78L225.68,324.91L210.09,332.51L174.16,362.64L170.85,367.98L157.38,382.34L120.52,455.83L109.42,485.97L101.89,538.36L100.31,633.88L87.23,676.15L104.93,686.16L106.78,703.91L98.32,752.54L88.55,774.96L66.35,779.19L26.19,770.87L0.43,781.02L7.56,804.14L28.17,828.25L121.58,912.87L155.92,897.21L160.56,871.31L143.12,854.56L143.12,819.21L172.76,809.9L211.11,780.14L244.23,767.12L279.1,755.96L298.28,767.12L300.02,741.07L284.33,731.77L252.95,724.33L239,705.74L254.69,692.72L244.23,664.82L235.52,629.49L245.98,618.34L268.64,618.34L275.61,607.18L272.46,604.2L259.92,592.31L254.69,562.57L253.24,538.5L249.6,478.29L248.25,456.09L254.02,414.25L257.76,387.18L272.13,361.89L263.3,325.12z"/>
        </a>

        <a xlink:href="#">
            <path id="MU-RR" title="Rivière du Rempart" class="land" d="M493.34,0L476.16,5.48L466.39,17.71L459.25,29.94L449.87,35.43L498.76,94.56L502.24,116.83L491.78,140.95L538.85,189.21L512.7,220.77L531.88,304.32L698.77,201.65L692.43,199.97L673.27,203.06L666.67,201.65L658.48,190.96L654.25,170.99L640.51,146.23L628.22,117.26L616.73,100.81L610.39,84.36L619.5,54.55L611.18,35.43L591.76,25.3L518.97,3.94L493.34,0z"/>
        </a>

        <a xlink:href="#">
            <path id="MU-PA" title="Pamplemousses" class="land" d="M531.88,304.32L512.7,220.77L538.85,189.21L491.78,140.95L502.24,116.83L498.76,94.56L449.87,35.43L428.07,37.11L416.98,42.17L372.19,78.45L365.06,88.86L355.15,107.42L335.07,169.3L310.49,214.74L309.44,246.96L318.26,248.38L354.06,254.18L383.7,246.76L395.9,269.04L401.13,339.61L394.56,384.67L409.85,389.76L437.74,378.61L470.86,356.32L494.59,355.09L497.01,339.61L524.91,321.03L531.88,304.32z"/>
        </a>

        <a xlink:href="#">
            <path id="MU-MO" title="Moka" class="land" d="M394.56,384.67L381.96,380.47L348.83,363.75L327.91,354.46L296.53,365.61L301.76,397.19L324.43,454.78L362.78,490.09L394.16,493.8L409.85,516.1L437.74,553.28L430.77,575.58L446.46,605.33L481.32,629.49L537.11,631.35L573.72,620.2L592.89,603.47L610.33,538.41L530.14,471.5L582.43,419.48L526.65,376.75L493.53,361.89L494.59,355.09L470.86,356.32L437.74,378.61L409.85,389.76L394.56,384.67z"/>
        </a>

        <a xlink:href="#">
            <path id="MU-GP" title="Grand Port" class="land" d="M771.03,562.59L735.84,558.85L688.78,596.03L626.02,601.61L592.89,603.47L573.72,620.2L537.11,631.35L481.32,629.49L394.16,731.77L439.48,729.91L472.61,737.35L502.24,770.84L523.16,828.51L528.39,867.59L532.08,886.92L599.03,865.48L619.37,851.52L631.79,834.03L653.59,794.55L662.44,789.48L672.74,790.04L681.99,786.8L687.67,770.87L686.48,761.42L677.76,746.62L676.58,734.36L664.02,705.75L691.64,665.02L736.82,629.37L776.45,616.12L767.34,589.64L771.03,562.59z"/>
        </a>

        <a xlink:href="#">
            <path id="MU-FL" title="Flacq" class="land" d="M799.57,420.64L792.44,402.33L761.26,364.89L745.67,315.63L728.89,302.12L716.34,284.1L721.63,228.24L716.87,217.13L698.77,201.65L531.88,304.32L524.91,321.03L497.01,339.61L494.59,355.09L493.53,361.89L526.65,376.75L582.43,419.48L530.14,471.5L610.33,538.41L592.89,603.47L626.02,601.61L688.78,596.03L735.84,558.85L771.03,562.59L788.47,509.63L796.66,462.17L799.57,420.64z"/>
        </a>
	</g>
</svg>
